X: 589
T: Achonry Lasses, The
R: reel
M: 4/4
K: Gmajor
|G3B C3D|dzcA BGAF|GBAF DE (3FGA|decA (3Bcd AF|
[D3G3]B [G,3C3]D|dBcA BGAF|GBAF DE (3FGA|d2cA BG~G2||
gzag fd~d2|eccB cdef|g2ag fddf|ecAc BGGf|
gzag fd~d2|eccB cdef|gbag (3fga fd|ecgc (3Bcd AF||

